io/game-controller-sharp.svg

<svg xmlns="http://www.w3.org/2000/svg" viewBox="0 0 512 512" height="1em" width="1em">
  <path d="M478.07 356.88 439 151c-8.86-40.35-23-71-88-71H145c-66 0-79.14 30.65-88 71L18 356.88c-7 34.12 4.43 61.25 33.37 71.81S103 423 119.18 391.3l15.42-30.52a16 16 0 0 1 14.28-8.78h198.28a16 16 0 0 1 14.28 8.78l15.42 30.52c16.14 31.7 38.88 48 67.81 37.39S485 391 478.07 356.88ZM224 240h-48v48h-32v-48H96v-32h48v-48h32v48h48Zm68 4a20 20 0 1 1 20-20 20 20 0 0 1-20 20Zm44 44a20 20 0 1 1 20-20 20 20 0 0 1-20 20Zm0-88a20 20 0 1 1 20-20 20 20 0 0 1-20 20Zm44 44a20 20 0 1 1 20-20 20 20 0 0 1-20 20Z"/>
</svg>

<svg xmlns="http://www.w3.org/2000/svg" viewBox="0 0 512 512" height="1em" width="1em">
  <path d="M478.07,356.88,439,151c-8.86-40.35-23-71-88-71H145c-66,0-79.14,30.65-88,71L18,356.88C11,391,22.43,418.13,51.37,428.69S103,423,119.18,391.3l15.42-30.52A16,16,0,0,1,148.88,352H347.16a16,16,0,0,1,14.28,8.78l15.42,30.52c16.14,31.7,38.88,48,67.81,37.39S485,391,478.07,356.88ZM224,240H176v48H144V240H96V208h48V160h32v48h48Zm68,4a20,20,0,1,1,20-20A20,20,0,0,1,292,244Zm44,44a20,20,0,1,1,20-20A20,20,0,0,1,336,288Zm0-88a20,20,0,1,1,20-20A20,20,0,0,1,336,200Zm44,44a20,20,0,1,1,20-20A20,20,0,0,1,380,244Z"/>
</svg>
